icon-svg/pillar-tuar.svg

<svg xmlns="http://www.w3.org/2000/svg" viewBox="0 0 24 24"><path fill="#44739e" d="M15.288 2.257a15 15 0 0 0-3.41-.243 16 16 0 0 0-3.409.243c-.487.244-1.461.488-1.461.975v6.09c0 .731.974.975 1.704.975h.244v11.198h.248a6.2 6.2 0 0 0 2.918.487 12.2 12.2 0 0 0 2.922-.487h.244V10.537h.243a1.74 1.74 0 0 0 1.461-.73V2.988c-.244-.487-.974-.487-1.704-.731m-6.332.731a12 12 0 0 1 2.922-.243 12 12 0 0 1 2.923.243c.487 0 .73.244 1.217.244a1.87 1.87 0 0 1-1.217.486c-.975 0-1.948.244-2.923.244a12 12 0 0 1-2.922-.244c-.487 0-.73-.243-1.217-.243a4.1 4.1 0 0 1 1.217-.487m7.305 6.575c-.487 0-.973.244-1.46.244a12 12 0 0 1-2.923.243 12 12 0 0 1-2.922-.243c-.487 0-.73-.244-1.217-.488v-.974c.243 0 .487.243.73.243a16 16 0 0 0 3.409.244 16 16 0 0 0 3.41-.244c.243 0 .486-.243.973-.243Zm0-2.197a3.5 3.5 0 0 1-1.46.488c-.975 0-1.948.243-2.923.243a12 12 0 0 1-2.922-.243c-.487 0-.73-.244-1.217-.488V6.153c.243 0 .487.244.73.244a16 16 0 0 0 3.409.244 16 16 0 0 0 3.41-.244c.243 0 .486-.244.973-.244Zm0-2.191a1.8 1.8 0 0 1-1.46.487 12 12 0 0 1-2.923.243 12 12 0 0 1-2.922-.243 1.86 1.86 0 0 1-1.217-.487V4.21c.243 0 .487.244.73.244a16 16 0 0 0 3.409.244 16 16 0 0 0 3.41-.244c.243 0 .486-.244.973-.244Z"/></svg>

<?xml version="1.0" encoding="UTF-8"?>
<svg width="24px" height="24px" viewBox="0 0 24 24" version="1.1" fill="#44739e" xmlns="http://www.w3.org/2000/svg" xmlns:xlink="http://www.w3.org/1999/xlink">
            <path d="M 15.293,2.244 A 15,15 0 0 0 11.878,2 16.1,16.1 0 0 0 8.463,2.244 C 7.976,2.488 7,2.732 7,3.22 v 6.1 c 0,0.732 0.976,0.976 1.707,0.976 H 8.951 V 21.512 H 9.2 A 6.186,6.186 0 0 0 12.122,22 12.239,12.239 0 0 0 15.049,21.512 h 0.244 V 10.537 h 0.244 A 1.739,1.739 0 0 0 17,9.805 V 2.976 C 16.756,2.488 16.024,2.488 15.293,2.244 Z M 8.951,2.976 a 11.871,11.871 0 0 1 2.927,-0.244 11.871,11.871 0 0 1 2.927,0.244 c 0.488,0 0.732,0.244 1.219,0.244 a 1.866,1.866 0 0 1 -1.219,0.487 c -0.976,0 -1.951,0.244 -2.927,0.244 A 11.871,11.871 0 0 1 8.951,3.707 C 8.463,3.707 8.22,3.463 7.732,3.463 A 4.138,4.138 0 0 1 8.951,2.976 Z m 7.317,6.585 c -0.488,0 -0.975,0.244 -1.463,0.244 A 11.871,11.871 0 0 1 11.878,10.049 11.871,11.871 0 0 1 8.951,9.805 C 8.463,9.805 8.22,9.561 7.732,9.317 V 8.341 c 0.244,0 0.488,0.244 0.731,0.244 a 16.1,16.1 0 0 0 3.415,0.244 16.1,16.1 0 0 0 3.415,-0.244 c 0.244,0 0.487,-0.244 0.975,-0.244 z m 0,-2.2 a 3.464,3.464 0 0 1 -1.463,0.488 c -0.976,0 -1.951,0.244 -2.927,0.244 A 11.871,11.871 0 0 1 8.951,7.849 C 8.463,7.849 8.22,7.605 7.732,7.361 V 6.146 c 0.244,0 0.488,0.244 0.731,0.244 a 16.1,16.1 0 0 0 3.415,0.244 16.1,16.1 0 0 0 3.415,-0.244 c 0.244,0 0.487,-0.244 0.975,-0.244 z m 0,-2.195 A 1.791,1.791 0 0 1 14.805,5.654 11.919,11.919 0 0 1 11.878,5.897 11.919,11.919 0 0 1 8.951,5.654 1.861,1.861 0 0 1 7.732,5.166 V 4.2 c 0.244,0 0.488,0.244 0.731,0.244 a 16.1,16.1 0 0 0 3.415,0.244 16.1,16.1 0 0 0 3.415,-0.244 c 0.244,0 0.487,-0.244 0.975,-0.244 z"></path>

</svg>
